X:1
T:Amazing Grace
T:Amazing Grace
T:Traditional
C:Traditional adapted by Judy Collins
Z:All Rights Reserved
L:1/8
M:3/4
K:G
V:1 treble 
%%MIDI program 40
V:1
"^Moderato" DG ||S"G" G4 BA/G/ | B4 A2 | G4 E>G | D4 DG | G4 BA/G/ | B4 AB | d6 |{/e} d4 Bd | %9
 B4 BA | z6 | G4 E>G | D4 DG | G4 BA/G/ | B4 A2 | G6 |{/A}"Am""Am" !fermata!G4"Am""Am" (DG) || %17
"G" G4 (3(BA)G | B4 (BA) |"C" G4 E2 |"G" D4 (DG) | G4 (3(BA)G | B4 (AB) |"D7" (d6 | d4) (Bd) |1 %25
"G" d4 (3(BA)G ||"G7" B4 (BA) |"C" G4 E2 |"G" D4 (DG) | G4 (3(BA)G |"D7" B4 A2 |"C" (G6 | %32
"G" G4) (DG) :|2"C" (A6 ||"G" !fermata!G4) DG!D.S.! |] %35

